X: 28224
T: Mrs. Dundas McQueen
R: reel
M: 4/4
K: Gmajor
|:g|BGdB cAec|BGdB de/f/ gd|BGdB cAeA|BG G/G/G e2 d:|
|:f|g/f/e/d/ gd cAef|gdgf e2 de/f/|gdeB cAdc|1 BG G/G/G e2 d:|2 BGGg egdg||

